X: 20154
T: Joanie's
R: reel
M: 4/4
K: Dmajor
DEFD EFGE|FAde fdef|g2ec ABcA|dcAG FAGE|
DEFD ~E3G|FAde fdef|g2ec ABcd|1 eddc dBAF:|2 eddc ~d3g||
|:~f3a gab^g|a2fd Adfa|g2ec ABcA|dcAG FAde|
fdfa gab^g|a2fd Adfa|g2ec ABcd|1 eddc ~d3g:|2 eddc dBAF||

